X:1
T: Hamilton House
C:
R:Jig
Q:180
K:G
M:6/8
L:1/16
|:g6d2B2d2|c4B2A4c2|B2d2B2A4G2|F3EF2D6|
g6d2B2d2|c4B2A2c2|e2d2c2 B2A2G2|F2G6G6:|
|:D6E2D2E2|D2G2B2d4d2|c4B2A4G2|F2E2F2D4D2|
E4c2 c2d2c2|d2B2G2G4g2|d2B2G2 c2A2F2|G6G4Bc|
d2B2d2 e2g2e2|d2B2d2c4A2|d2B2G2 E2F2G2|A2B2G2 F2E2D2|
d2B2d2 e2g2e2|d2B2d2c4A2|d2B2G2 D2E2F2|G6G6:|
